X: 34
T:Bung Your Eye
% Nottingham Music Database
S:FTB 2/42, via EF
Y:AB
M:6/8
K:Am
P:A
E|"Am"ABA c2d|"Am"edc B2A|"G"GAG B2c|"G"dge dBG|
"Am"ABA c2d|"Am"edc "G"Bcd|"Am"e2A "E7"AB^G|"Am"A3 A2:|
P:B
B|"C"c3/2d/2e/2f/2 g2a|"C"gec gec|"G"G3/2A/2B/2c/2 d2e|"G"dge dBG|
"C"c3/2d/2e/2f/2 g2a|"C"gec "E7"de^g|"Am"a2A "E7"AB^G|"Am"A3 A2:|


